X:6159
T:Solway Schottische. GHW.040
O:england
M:4/4
L:1/8
Q:120
S:George H.Watson,MS,Swanton Abbott,Norfolk,1850-1880
R:Schottische
A:Norfolk
N:'Sign' at beginning. DC marked at end of B part. A part marked
N:'second
N:time octave higher at end.  End of bar 4 in B part missing in MS
K:F
A>B|c>Bd>c A>FE>F|B>AG>D G3 F|E>FG>A B>ce>d|c>=Bc>d "A>B in ms"A3B|
c>=Bd>c A>FE>F|B>AG>D G3 F|1E>FG>A c>Bd>c:|2F2F2F2:|
K:C
|:z2|G>AG>^F G2 e>c|f2 A2 A3 B|d>cB>A c>BA>G|"sic"B>AG>F|
G>AG>^F G2 e>c|A>^GA>B A2 f>d|B>^AB>d B>G=A>B|1 c2c2c2 z2:|"DC"2c2c2c2||
|:G2E2 c2G2|e>dc>A B2A2|f>ed>G e>dc>B|A>Bc>e d>cB>A|
G2E2c2G2|e>dc>G B2A2|f>ed>c B>GA>B|c2c2c2:|
